X:1
T:Psalm 38
T:V 14
L:1/4
M:14/4
I:linebreak $
K:Bb
V:1 treble nm="Pipe Organ" snm="Org."
V:1
 B2 A2 G A B c d2 c3 z |$[M:9/4] d2 c B2 A3 z |$[M:12/4] c c d2 B c A2 G3 z |$ %3
w: Want in al my te- ën- he- de|dreig my skre- de|al- tyd weer om uit te gly.|
[M:14/4] d2 d2 c B G A B2 A3 z |$[M:9/4] B2 A G2 F3 z |$[M:14/4] B2 d2 c B G2 A2 G4 |] %6
w: HEER, ek kerm in on- ver- mo- ë|voor u o- ë,|en my smart is steeds voor my.|

